app/images/icons/facebook.svg

<svg enable-background="new 0 0 62 62" height="62" viewBox="0 0 62 62" width="62" xmlns="http://www.w3.org/2000/svg"><g fill="#2196f3"><path d="m31 59.934h8.268v-20.666h10.332v-8.268h-10.332v-7.233c0-1.757 1.342-3.1 3.1-3.1h8.266v-8.267h-9.3c-5.787.517-10.334 5.477-10.334 11.367v7.233h-8.267v8.268h8.267zm10.333 2.066h-12.4v-20.667h-8.266v-12.4h8.266v-5.166c0-6.924 5.374-12.814 12.297-13.434h11.47v12.4h-10.333c-.62 0-1.034.414-1.034 1.034v5.166h10.334v12.4h-10.334z"/><path d="m5.167 2.067c-1.757 0-3.1 1.343-3.1 3.1v51.666c0 1.757 1.343 3.101 3.1 3.101h51.666c1.757 0 3.101-1.344 3.101-3.101v-51.666c0-1.757-1.344-3.1-3.101-3.1zm51.666 59.933h-51.666c-2.894 0-5.167-2.273-5.167-5.167v-51.666c0-2.894 2.273-5.167 5.167-5.167h51.666c2.894 0 5.167 2.273 5.167 5.167v51.666c0 2.894-2.273 5.167-5.167 5.167z"/></g></svg>

<?xml version="1.0" encoding="utf-8"?>
<!-- Generator: Adobe Illustrator 16.0.0, SVG Export Plug-In . SVG Version: 6.00 Build 0)  -->
<!DOCTYPE svg PUBLIC "-//W3C//DTD SVG 1.1//EN" "http://www.w3.org/Graphics/SVG/1.1/DTD/svg11.dtd">
<svg version="1.1" id="Layer_1" xmlns="http://www.w3.org/2000/svg" xmlns:xlink="http://www.w3.org/1999/xlink" x="0px" y="0px"
	 width="62px" height="62px" viewBox="0 0 62 62" enable-background="new 0 0 62 62" xml:space="preserve">
<g>
	<path fill="#2196F3" d="M31,59.934h8.268V39.268H49.6V31H39.268v-7.233c0-1.757,1.342-3.1,3.1-3.1h8.266V12.4h-9.3
		C35.547,12.917,31,17.877,31,23.767V31h-8.267v8.268H31V59.934z M41.333,62h-12.4V41.333h-8.266v-12.4h8.266v-5.166
		c0-6.924,5.374-12.814,12.297-13.434H52.7v12.4H42.367c-0.62,0-1.034,0.414-1.034,1.034v5.166h10.334v12.4H41.333V62z"/>
	<path fill="#2196F3" d="M5.167,2.067c-1.757,0-3.1,1.343-3.1,3.1v51.666c0,1.757,1.343,3.101,3.1,3.101h51.666
		c1.757,0,3.101-1.344,3.101-3.101V5.167c0-1.757-1.344-3.1-3.101-3.1H5.167z M56.833,62H5.167C2.273,62,0,59.727,0,56.833V5.167
		C0,2.273,2.273,0,5.167,0h51.666C59.727,0,62,2.273,62,5.167v51.666C62,59.727,59.727,62,56.833,62z"/>
</g>
</svg>
